!!!OTL: Der Meierin Sohn Stoji, stoji beli grad,
!!!ARE: Europa, Suedosteuropa, Jugoslavija, Slowenien, Reifnitz
!!!YOR: 4, S. 249
!!    1881 gedruckt in Zagreb
!!!SCT: Q2083D
!!!YEM: Copyright 1995, estate of Helmut Schaffrath.
**kern
*ICvox
*Ivox
*M4/4
*k[b-e-]
*g:
{4d
4g
4a
=1
2b-
2a
=2
4dd
8cc
8b-
2a
=3
4r}
{4d
4g
4a
=4
4.b-
8a
4g
8f#
8g
=5
8a
8f#
2.g
=6
4r}
{4d
4g
4a
=7
4.b-
8a
4g
8f#
8g
=8
8a
8f#
2.g
=9
4r}
==
!!!AGN: Ballade, Mord, Vergeltung, Heirat
!! Slowenische Fassung der Ballade. Verzierung (Nachschlag) in der
!!    ersten Zeile.
!!!ONB: ESAC (Essen Associative Code) Database: BALLADE
!!!AMT: simple quadruple
!!!AIN: vox
!!!EED: Helmut Schaffrath
!!!EEV: 1.0
*-
